X:10
T:Fezelen
O:vlaanderen
C:Trad.
Z:Bart Vanhaverbeke 
P:ABx2
L:1/8
M:2/4
K:G
P:Voorspel
D2 | G2 B2 | A2 G2 | AG FA | G z |]
P:A
D2 || G2 B2 | A2 G2 | AG FE | D2 D2 | c2 c2 | cB ce | (d4 | d2) z c/B/ |
AE EB/A/ | GD DA/G/ | FD FA | d2 z c/B/ | AE EB/A/ | GD DA/G/ | FD FA |1 G z D2 :|2 G z z2 |]
P:B
d/^c/d/e/ dB | =cA G z | d/^c/d/e/ dB | =cB A z | d/^c/d/e/ dB | =cA e2 |1 dd cc | (B2 B) z :|2 dd cA | G2 |]
